public/assets/standards/soft/strategy.svg

<svg width="48" height="48" viewBox="0 0 48 48" fill="none" xmlns="http://www.w3.org/2000/svg">
<path d="M24.9999 11.4C31.3999 11.4 36.5999 16.6 36.5999 23C36.5999 29.4 31.3899 34.6 24.9999 34.6C18.6099 34.6 13.3999 29.4 13.3999 23C13.3999 16.6 18.6099 11.4 24.9999 11.4ZM24.9999 8.78999C17.1499 8.78999 10.7899 15.15 10.7899 23C10.7899 30.85 17.1499 37.21 24.9999 37.21C32.8499 37.21 39.2099 30.85 39.2099 23C39.2099 15.15 32.8499 8.78999 24.9999 8.78999Z" fill="#A4C352"/>
<path d="M25 3.75C35.61 3.75 44.25 12.39 44.25 23C44.25 33.61 35.61 42.25 25 42.25C14.39 42.25 5.75 33.61 5.75 23C5.75 12.39 14.39 3.75 25 3.75ZM25 1C12.85 1 3 10.85 3 23C3 35.15 12.85 45 25 45C37.15 45 47 35.15 47 23C47 10.85 37.15 1 25 1Z" fill="#A4C352"/>
<path d="M25 29.42C28.5456 29.42 31.42 26.5457 31.42 23C31.42 19.4543 28.5456 16.58 25 16.58C21.4543 16.58 18.58 19.4543 18.58 23C18.58 26.5457 21.4543 29.42 25 29.42Z" fill="#A4C352"/>
<g style="mix-blend-mode:multiply">
<path d="M12.0499 36.02L20.8999 27.17" stroke="#006D68" stroke-width="0.92" stroke-miterlimit="10"/>
<path d="M12.4 35.09L5.75997 36.73L0.719971 41.77H6.29997V47.34L11.34 42.3L12.98 35.66L12.4 35.09Z" fill="#006D68"/>
<path d="M23.18 31.35L25.55 22.52L16.72 24.88L23.18 31.35Z" fill="#006D68"/>
</g>
</svg>

<svg xmlns="http://www.w3.org/2000/svg" width="48" height="48" fill="none" viewBox="0 0 48 48"><path fill="#a4c352" d="M25 11.4c6.4 0 11.6 5.2 11.6 11.6S31.39 34.6 25 34.6 13.4 29.4 13.4 23 18.61 11.4 25 11.4m0-2.61c-7.85 0-14.21 6.36-14.21 14.21S17.15 37.21 25 37.21 39.21 30.85 39.21 23 32.85 8.79 25 8.79"/><path fill="#a4c352" d="M25 3.75c10.61 0 19.25 8.64 19.25 19.25S35.61 42.25 25 42.25 5.75 33.61 5.75 23 14.39 3.75 25 3.75M25 1C12.85 1 3 10.85 3 23s9.85 22 22 22 22-9.85 22-22S37.15 1 25 1"/><path fill="#a4c352" d="M25 29.42a6.42 6.42 0 1 0 0-12.84 6.42 6.42 0 0 0 0 12.84"/><g style="mix-blend-mode:multiply"><path stroke="#006d68" stroke-miterlimit="10" stroke-width=".92" d="m12.05 36.02 8.85-8.85"/><path fill="#006d68" d="m12.4 35.09-6.64 1.64-5.04 5.04H6.3v5.57l5.04-5.04 1.64-6.64zm10.78-3.74 2.37-8.83-8.83 2.36z"/></g></svg>
